apps/scalable/nautilus-finder.svg

<svg id="svg48" width="256" height="256" style="isolation:isolate" version="1.1" viewBox="0 0 256 256" xmlns="http://www.w3.org/2000/svg">
 <g id="g9" filter="url(#hxYJghqWEsg1wGUPIdascspcwwv1z4St)">
  <linearGradient id="_lgradient_3" x1=".46015" x2=".46015" y1=".79778" y2=".020789" gradientTransform="matrix(244.65 0 0 228.34 5.676 11.947)" gradientUnits="userSpaceOnUse">
   <stop id="stop2" stop-color="#ebdbb2" offset="0"/>
   <stop id="stop4" stop-color="#ebdbb2" offset="1"/>
  </linearGradient>
  <path id="path7" d="m165.68 11.947c74.055 0 84.639 10.557 84.639 84.544v59.251c0 73.986-10.584 84.543-84.639 84.543h-75.37c-74.055 0-84.639-10.557-84.639-84.543v-59.251c0-73.987 10.584-84.544 84.639-84.544h75.37z" fill="url(#_lgradient_3)"/>
 </g>
 <defs id="defs22">
  <filter id="hxYJghqWEsg1wGUPIdascspcwwv1z4St" x="-.042124" y="-.045133" width="1.0842" height="1.1078" color-interpolation-filters="sRGB">
   <feGaussianBlur id="feGaussianBlur11" in="SourceGraphic" stdDeviation="4.294"/>
   <feOffset id="feOffset13" dx="0" dy="4" result="pf_100_offsetBlur"/>
   <feFlood id="feFlood15" flood-color="#282828" flood-opacity=".4"/>
   <feComposite id="feComposite17" in2="pf_100_offsetBlur" operator="in" result="pf_100_dropShadow"/>
   <feBlend id="feBlend19" in="SourceGraphic" in2="pf_100_dropShadow"/>
  </filter>
 </defs>
 <linearGradient id="_lgradient_4" x1=".57652" x2=".57652" y1="-.0081094" y2="1.0144" gradientTransform="matrix(205.78 0 0 228.34 44.542 11.83)" gradientUnits="userSpaceOnUse">
  <stop id="stop24" stop-color="#83a598" offset="0"/>
  <stop id="stop26" stop-color="#076678" offset="1"/>
 </linearGradient>
 <path id="path29" d="m128.5 240.17h37.186c9.256 0 17.521-0.167 24.898-0.6 3.688-0.216 7.155-0.499 10.412-0.863s6.305-0.807 9.156-1.344c2.852-0.536 5.507-1.165 7.979-1.9s4.761-1.576 6.879-2.535c2.118-0.96 4.065-2.038 5.855-3.248s3.423-2.551 4.91-4.037c1.488-1.486 2.832-3.117 4.043-4.905 1.212-1.788 2.291-3.734 3.252-5.849 0.961-2.116 1.803-4.4 2.539-6.869 0.737-2.47 1.367-5.123 1.905-7.971 0.537-2.849 0.981-5.893 1.345-9.147 0.365-3.253 0.649-6.717 0.866-10.402 0.434-7.369 0.599-15.625 0.599-24.873v-59.252c0-9.248-0.165-17.506-0.599-24.875-0.217-3.685-0.501-7.147-0.866-10.4-0.364-3.254-0.808-6.3-1.345-9.149-0.538-2.848-1.168-5.499-1.905-7.969-0.736-2.469-1.578-4.755-2.539-6.871-0.961-2.115-2.04-4.061-3.252-5.849-1.211-1.788-2.555-3.419-4.043-4.905-1.487-1.486-3.12-2.827-4.91-4.037s-3.737-2.288-5.855-3.248c-2.118-0.959-4.407-1.8-6.879-2.535s-5.127-1.364-7.979-1.9c-2.851-0.537-5.899-0.98-9.156-1.344s-6.724-0.647-10.412-0.863c-7.377-0.433-15.642-0.6-24.898-0.6h-70.721c-5.211 4.331-16.056 16.893-22.088 25.899-17.325 25.865-26.673 54.166-28.199 85.378-0.435 8.898 0.086 11.456 2.908 14.278 3.052 3.052 3.993 3.166 26.141 3.166 18.678 0 19.969 0.059 19.955 0.916-9e-3 0.504-0.364 3.274-0.787 6.154-2.741 18.642-0.85 42.653 4.791 60.867 2.411 7.785 4.673 9.699 12.537 10.6 14.135 1.619 29.718-0.346 43.441-5.481 11.755-4.398 21.363-10.347 31.162-19.293 2.161-1.972 4.572-3.92 5.36-4.33 6.44-3.351 14.349 1.111 14.957 8.438 0.341 4.119-1.117 6.723-6.53 11.66-19.022 17.349-43.183 27.913-68.517 29.959-0.672 0.054-0.926 0.075-1.596 0.129z" fill="url(#_lgradient_4)"/>
 <path id="path31" d="m147.09 75h0.826c3.912 0 7.087 3.175 7.087 7.087v16.826c0 3.912-3.175 7.087-7.087 7.087h-0.826c-3.912 0-7.087-3.175-7.087-7.087v-16.826c0-3.912 3.175-7.087 7.087-7.087z" fill="#ebdbb2"/>
 <g id="g46" opacity=".4">
  <g id="g44" opacity=".4">
   <linearGradient id="_lgradient_5" x1=".517" x2=".517" y1="1.1257e-6" y2="1" gradientTransform="matrix(244.65 0 0 228.34 5.68 11.95)" gradientUnits="userSpaceOnUse">
    <stop id="stop33" stop-color="#ebdbb2" offset="0"/>
    <stop id="stop35" stop-color="#ebdbb2" stop-opacity=".098" offset=".125"/>
    <stop id="stop37" stop-color="#282828" offset=".925"/>
    <stop id="stop39" stop-color="#282828" offset="1"/>
   </linearGradient>
   <path id="path42" d="m165.07 11.951c4.328-0.01 8.656 0.04 12.984 0.138 3.875 0.078 7.75 0.226 11.626 0.452 3.453 0.196 6.905 0.481 10.348 0.854 3.06 0.335 6.118 0.786 9.148 1.346 2.713 0.5 5.399 1.14 8.046 1.916 2.398 0.697 4.745 1.56 7.023 2.584 2.112 0.941 4.14 2.062 6.06 3.35 1.84 1.24 3.559 2.651 5.134 4.215 1.565 1.569 2.978 3.283 4.22 5.119 1.286 1.917 2.411 3.938 3.363 6.042 1.021 2.275 1.888 4.615 2.597 7.005 0.777 2.644 1.417 5.327 1.918 8.037 0.562 3.025 1.012 6.069 1.348 9.127 0.374 3.439 0.659 6.878 0.856 10.326 0.226 3.861 0.373 7.732 0.462 11.593 0.088 4.323 0.138 8.646 0.128 12.96v58.21c0.01 4.324-0.04 8.637-0.128 12.96-0.085 3.867-0.239 7.732-0.462 11.593-0.197 3.449-0.482 6.892-0.856 10.326-0.336 3.061-0.786 6.109-1.348 9.137-0.502 2.707-1.142 5.386-1.918 8.027-0.707 2.391-1.575 4.731-2.597 7.005-0.95 2.105-2.075 4.126-3.364 6.042-1.239 1.838-2.652 3.552-4.22 5.119-1.575 1.564-3.294 2.975-5.134 4.215-1.92 1.288-3.947 2.409-6.059 3.35-2.28 1.023-4.626 1.889-7.023 2.594-2.646 0.777-5.332 1.414-8.046 1.906-3.031 0.566-6.083 1.015-9.148 1.346-3.443 0.373-6.895 0.658-10.348 0.854-3.875 0.226-7.75 0.374-11.626 0.462-4.328 0.088-8.656 0.138-12.984 0.128h-74.126c-4.328 0.01-8.656-0.04-12.984-0.128-3.878-0.085-7.754-0.239-11.626-0.462-3.456-0.196-6.907-0.481-10.348-0.854-3.065-0.331-6.117-0.78-9.148-1.346-2.714-0.492-5.4-1.129-8.046-1.906-2.397-0.705-4.743-1.571-7.023-2.594-2.112-0.941-4.14-2.062-6.06-3.35-1.84-1.24-3.559-2.651-5.134-4.215-1.568-1.567-2.981-3.281-4.22-5.119-1.288-1.916-2.413-3.937-3.363-6.042-1.022-2.274-1.89-4.614-2.597-7.005-0.776-2.641-1.416-5.32-1.918-8.027-0.562-3.028-1.012-6.076-1.348-9.137-0.374-3.434-0.659-6.877-0.856-10.326-0.223-3.861-0.377-7.726-0.462-11.593-0.092-4.319-0.135-8.64-0.128-12.96v-58.21c-0.01-4.314 0.04-8.637 0.128-12.96 0.089-3.86 0.236-7.732 0.462-11.593 0.197-3.448 0.482-6.887 0.856-10.326 0.335-3.055 0.787-6.101 1.348-9.127 0.501-2.71 1.141-5.393 1.918-8.037 0.709-2.39 1.576-4.73 2.597-7.005 0.952-2.104 2.077-4.125 3.364-6.042 1.242-1.836 2.655-3.55 4.22-5.119 1.575-1.564 3.294-2.975 5.134-4.215 1.92-1.288 3.947-2.409 6.059-3.35 2.278-1.024 4.625-1.887 7.023-2.584 2.647-0.776 5.333-1.416 8.046-1.916 3.032-0.561 6.083-1.01 9.148-1.346 3.443-0.373 6.895-0.658 10.348-0.854 3.875-0.226 7.75-0.374 11.626-0.452 4.328-0.098 8.656-0.148 12.984-0.138h74.126zm0.01 4.009c4.298-0.01 8.597 0.039 12.895 0.127 3.827 0.089 7.653 0.236 11.48 0.452 3.383 0.197 6.766 0.472 10.13 0.845 2.971 0.315 5.932 0.747 8.863 1.297 2.581 0.473 5.135 1.08 7.653 1.818 2.219 0.649 4.391 1.45 6.501 2.397 1.905 0.853 3.735 1.865 5.47 3.026 1.624 1.093 3.14 2.34 4.524 3.724 1.386 1.385 2.637 2.898 3.738 4.519 1.16 1.727 2.174 3.547 3.03 5.443 0.945 2.108 1.747 4.278 2.4 6.494 0.742 2.511 1.352 5.059 1.829 7.634 0.54 2.928 0.974 5.875 1.298 8.842 0.374 3.36 0.65 6.73 0.846 10.11 0.217 3.822 0.374 7.634 0.453 11.456 0.088 4.293 0.137 8.577 0.137 12.87v58.212c0 4.293-0.049 8.577-0.137 12.87-0.082 3.821-0.233 7.64-0.453 11.456-0.196 3.38-0.472 6.75-0.846 10.12-0.325 2.959-0.757 5.905-1.298 8.832-0.477 2.575-1.088 5.123-1.83 7.634-0.652 2.217-1.454 4.386-2.4 6.494-0.854 1.897-1.868 3.718-3.03 5.443-1.098 1.626-2.349 3.143-3.737 4.53-1.388 1.378-2.903 2.621-4.525 3.713-1.734 1.161-3.564 2.173-5.469 3.026-2.108 0.951-4.28 1.752-6.501 2.397-2.518 0.738-5.072 1.345-7.653 1.818-2.931 0.55-5.892 0.982-8.863 1.306-3.364 0.364-6.747 0.649-10.13 0.836-3.827 0.216-7.653 0.373-11.48 0.452-4.298 0.098-8.597 0.137-12.895 0.137h-74.146c-4.298 0-8.597-0.04-12.895-0.137-3.829-0.082-7.656-0.233-11.48-0.452-3.383-0.19-6.761-0.469-10.13-0.836-2.97-0.322-5.926-0.757-8.863-1.306-2.581-0.473-5.135-1.08-7.653-1.818-2.221-0.645-4.393-1.446-6.501-2.397-1.905-0.853-3.735-1.865-5.47-3.026-1.622-1.092-3.137-2.336-4.524-3.714-1.388-1.386-2.64-2.903-3.738-4.529-1.162-1.725-2.176-3.546-3.03-5.443-0.946-2.108-1.748-4.277-2.4-6.494-0.742-2.511-1.352-5.059-1.829-7.634-0.541-2.927-0.973-5.873-1.298-8.832-0.374-3.37-0.65-6.74-0.846-10.12-0.22-3.816-0.371-7.635-0.453-11.456-0.09-4.289-0.136-8.58-0.137-12.87v-58.212c0-4.293 0.049-8.577 0.137-12.87 0.079-3.822 0.236-7.634 0.453-11.456 0.197-3.38 0.472-6.75 0.846-10.11 0.324-2.967 0.757-5.914 1.298-8.842 0.477-2.575 1.088-5.123 1.83-7.634 0.653-2.216 1.455-4.386 2.4-6.494 0.856-1.896 1.87-3.716 3.03-5.443 1.1-1.621 2.352-3.135 3.737-4.52 1.385-1.384 2.9-2.631 4.525-3.723 1.734-1.161 3.564-2.173 5.469-3.026 2.11-0.947 4.282-1.748 6.501-2.397 2.518-0.738 5.072-1.345 7.653-1.818 2.931-0.55 5.892-0.982 8.863-1.297 3.364-0.373 6.747-0.648 10.13-0.845 3.824-0.214 7.651-0.365 11.48-0.452 4.298-0.088 8.597-0.137 12.895-0.127h74.146z" fill="url(#_lgradient_5)" fill-rule="evenodd"/>
  </g>
 </g>
</svg>

<?xml version="1.0" standalone="no"?><!-- Generator: Gravit.io --><svg xmlns="http://www.w3.org/2000/svg" xmlns:xlink="http://www.w3.org/1999/xlink" style="isolation:isolate" viewBox="0 0 256 256" width="256" height="256"><g filter="url(#hxYJghqWEsg1wGUPIdascspcwwv1z4St)"><linearGradient id="_lgradient_3" x1="0.4601468231908701" y1="0.7977822351076037" x2="0.46014682319087014" y2="0.0207893561299477" gradientTransform="matrix(244.648,0,0,228.338,5.676,11.947)" gradientUnits="userSpaceOnUse"><stop offset="0%" stop-opacity="1" style="stop-color:#ebdbb2"/><stop offset="100%" stop-opacity="1" style="stop-color:#feffff"/></linearGradient><path d=" M 165.685 11.947 C 239.74 11.947 250.324 22.504 250.324 96.491 L 250.324 155.742 C 250.324 229.728 239.74 240.285 165.685 240.285 L 90.315 240.285 C 16.26 240.285 5.676 229.728 5.676 155.742 L 5.676 96.491 C 5.676 22.504 16.26 11.947 90.315 11.947 L 165.685 11.947 Z " fill="url(#_lgradient_3)"/></g><defs><filter id="hxYJghqWEsg1wGUPIdascspcwwv1z4St" x="-200%" y="-200%" width="400%" height="400%" filterUnits="objectBoundingBox" color-interpolation-filters="sRGB"><feGaussianBlur xmlns="http://www.w3.org/2000/svg" in="SourceGraphic" stdDeviation="4.294"/><feOffset xmlns="http://www.w3.org/2000/svg" dx="0" dy="4" result="pf_100_offsetBlur"/><feFlood xmlns="http://www.w3.org/2000/svg" flood-color="#282828" flood-opacity="0.4"/><feComposite xmlns="http://www.w3.org/2000/svg" in2="pf_100_offsetBlur" operator="in" result="pf_100_dropShadow"/><feBlend xmlns="http://www.w3.org/2000/svg" in="SourceGraphic" in2="pf_100_dropShadow" mode="normal"/></filter></defs><linearGradient id="_lgradient_4" x1="0.576516915315688" y1="-0.00810935581316554" x2="0.5765169153156878" y2="1.0143873552767897" gradientTransform="matrix(205.782,0,0,228.34,44.542,11.83)" gradientUnits="userSpaceOnUse"><stop offset="0%" stop-opacity="1" style="stop-color:#83a598"/><stop offset="100%" stop-opacity="1" style="stop-color:#076678"/></linearGradient><path d=" M 128.5 240.17 L 165.686 240.17 C 174.942 240.17 183.207 240.003 190.584 239.57 C 194.272 239.354 197.739 239.071 200.996 238.707 C 204.253 238.343 207.301 237.9 210.152 237.363 C 213.004 236.827 215.659 236.198 218.131 235.463 C 220.603 234.728 222.892 233.887 225.01 232.928 C 227.128 231.968 229.075 230.89 230.865 229.68 C 232.655 228.47 234.288 227.129 235.775 225.643 C 237.263 224.157 238.607 222.526 239.818 220.738 C 241.03 218.95 242.109 217.004 243.07 214.889 C 244.031 212.773 244.873 210.489 245.609 208.02 C 246.346 205.55 246.976 202.897 247.514 200.049 C 248.051 197.2 248.495 194.156 248.859 190.902 C 249.224 187.649 249.508 184.185 249.725 180.5 C 250.159 173.131 250.324 164.875 250.324 155.627 L 250.324 96.375 C 250.324 87.127 250.159 78.869 249.725 71.5 C 249.508 67.815 249.224 64.353 248.859 61.1 C 248.495 57.846 248.051 54.8 247.514 51.951 C 246.976 49.103 246.346 46.452 245.609 43.982 C 244.873 41.513 244.031 39.227 243.07 37.111 C 242.109 34.996 241.03 33.05 239.818 31.262 C 238.607 29.474 237.263 27.843 235.775 26.357 C 234.288 24.871 232.655 23.53 230.865 22.32 C 229.075 21.11 227.128 20.032 225.01 19.072 C 222.892 18.113 220.603 17.272 218.131 16.537 C 215.659 15.802 213.004 15.173 210.152 14.637 C 207.301 14.1 204.253 13.657 200.996 13.293 C 197.739 12.929 194.272 12.646 190.584 12.43 C 183.207 11.997 174.942 11.83 165.686 11.83 L 94.965 11.83 C 89.754 16.161 78.909 28.723 72.877 37.729 C 55.552 63.594 46.204 91.895 44.678 123.107 C 44.243 132.005 44.764 134.563 47.586 137.385 C 50.638 140.437 51.579 140.551 73.727 140.551 C 92.405 140.551 93.696 140.61 93.682 141.467 C 93.673 141.971 93.318 144.741 92.895 147.621 C 90.154 166.263 92.045 190.274 97.686 208.488 C 100.097 216.273 102.359 218.187 110.223 219.088 C 124.358 220.707 139.941 218.742 153.664 213.607 C 165.419 209.209 175.027 203.26 184.826 194.314 C 186.987 192.342 189.398 190.394 190.186 189.984 C 196.626 186.633 204.535 191.095 205.143 198.422 C 205.484 202.541 204.026 205.145 198.613 210.082 C 179.591 227.431 155.43 237.995 130.096 240.041 C 129.424 240.095 129.17 240.116 128.5 240.17 L 128.5 240.17 Z " fill="url(#_lgradient_4)"/><path d=" M 147.087 75 L 147.913 75 C 151.825 75 155 78.175 155 82.087 L 155 98.913 C 155 102.825 151.825 106 147.913 106 L 147.087 106 C 143.175 106 140 102.825 140 98.913 L 140 82.087 C 140 78.175 143.175 75 147.087 75 Z " fill="#ebdbb2"/><g style="opacity:0.4;"><g opacity="0.4"><linearGradient id="_lgradient_5" x1="0.5169999634453897" y1="0.0000011256553389474289" x2="0.5169999634453895" y2="0.9999988480691453" gradientTransform="matrix(244.651,0,0,228.341,5.68,11.95)" gradientUnits="userSpaceOnUse"><stop offset="0%" stop-opacity="1" style="stop-color:#ebdbb2"/><stop offset="12.5%" stop-opacity="0.098" style="stop-color:#ebdbb2"/><stop offset="92.499901888811%" stop-opacity="1" style="stop-color:#282828"/><stop offset="99.99988480691454%" stop-opacity="1" style="stop-color:#282828"/></linearGradient><path d=" M 165.068 11.951 C 169.396 11.941 173.724 11.991 178.052 12.089 C 181.927 12.167 185.802 12.315 189.678 12.541 C 193.131 12.737 196.583 13.022 200.026 13.395 C 203.086 13.73 206.144 14.181 209.174 14.741 C 211.887 15.241 214.573 15.881 217.22 16.657 C 219.618 17.354 221.965 18.217 224.243 19.241 C 226.355 20.182 228.383 21.303 230.303 22.591 C 232.143 23.831 233.862 25.242 235.437 26.806 C 237.002 28.375 238.415 30.089 239.657 31.925 C 240.943 33.842 242.068 35.863 243.02 37.967 C 244.041 40.242 244.908 42.582 245.617 44.972 C 246.394 47.616 247.034 50.299 247.535 53.009 C 248.097 56.034 248.547 59.078 248.883 62.136 C 249.257 65.575 249.542 69.014 249.739 72.462 C 249.965 76.323 250.112 80.194 250.201 84.055 C 250.289 88.378 250.339 92.701 250.329 97.015 L 250.329 155.225 C 250.339 159.549 250.289 163.862 250.201 168.185 C 250.116 172.052 249.962 175.917 249.739 179.778 C 249.542 183.227 249.257 186.67 248.883 190.104 C 248.547 193.165 248.097 196.213 247.535 199.241 C 247.033 201.948 246.393 204.627 245.617 207.268 C 244.91 209.659 244.042 211.999 243.02 214.273 C 242.07 216.378 240.945 218.399 239.656 220.315 C 238.417 222.153 237.004 223.867 235.436 225.434 C 233.861 226.998 232.142 228.409 230.302 229.649 C 228.382 230.937 226.355 232.058 224.243 232.999 C 221.963 234.022 219.617 234.888 217.22 235.593 C 214.574 236.37 211.888 237.007 209.174 237.499 C 206.143 238.065 203.091 238.514 200.026 238.845 C 196.583 239.218 193.131 239.503 189.678 239.699 C 185.803 239.925 181.928 240.073 178.052 240.161 C 173.724 240.249 169.396 240.299 165.068 240.289 L 90.942 240.289 C 86.614 240.299 82.286 240.249 77.958 240.161 C 74.08 240.076 70.204 239.922 66.332 239.699 C 62.876 239.503 59.425 239.218 55.984 238.845 C 52.919 238.514 49.867 238.065 46.836 237.499 C 44.122 237.007 41.436 236.37 38.79 235.593 C 36.393 234.888 34.047 234.022 31.767 232.999 C 29.655 232.058 27.627 230.937 25.707 229.649 C 23.867 228.409 22.148 226.998 20.573 225.434 C 19.005 223.867 17.592 222.153 16.353 220.315 C 15.065 218.399 13.94 216.378 12.99 214.273 C 11.968 211.999 11.1 209.659 10.393 207.268 C 9.617 204.627 8.977 201.948 8.475 199.241 C 7.913 196.213 7.463 193.165 7.127 190.104 C 6.753 186.67 6.468 183.227 6.271 179.778 C 6.048 175.917 5.894 172.052 5.809 168.185 C 5.717 163.866 5.674 159.545 5.681 155.225 L 5.681 97.015 C 5.671 92.701 5.721 88.378 5.809 84.055 C 5.898 80.195 6.045 76.323 6.271 72.462 C 6.468 69.014 6.753 65.575 7.127 62.136 C 7.462 59.081 7.914 56.035 8.475 53.009 C 8.976 50.299 9.616 47.616 10.393 44.972 C 11.102 42.582 11.969 40.242 12.99 37.967 C 13.942 35.863 15.067 33.842 16.354 31.925 C 17.596 30.089 19.009 28.375 20.574 26.806 C 22.149 25.242 23.868 23.831 25.708 22.591 C 27.628 21.303 29.655 20.182 31.767 19.241 C 34.045 18.217 36.392 17.354 38.79 16.657 C 41.437 15.881 44.123 15.241 46.836 14.741 C 49.868 14.18 52.919 13.731 55.984 13.395 C 59.427 13.022 62.879 12.737 66.332 12.541 C 70.207 12.315 74.082 12.167 77.958 12.089 C 82.286 11.991 86.614 11.941 90.942 11.951 L 165.068 11.951 Z  M 165.078 15.96 C 169.376 15.95 173.675 15.999 177.973 16.087 C 181.8 16.176 185.626 16.323 189.453 16.539 C 192.836 16.736 196.219 17.011 199.583 17.384 C 202.554 17.699 205.515 18.131 208.446 18.681 C 211.027 19.154 213.581 19.761 216.099 20.499 C 218.318 21.148 220.49 21.949 222.6 22.896 C 224.505 23.749 226.335 24.761 228.07 25.922 C 229.694 27.015 231.21 28.262 232.594 29.646 C 233.98 31.031 235.231 32.544 236.332 34.165 C 237.492 35.892 238.506 37.712 239.362 39.608 C 240.307 41.716 241.109 43.886 241.762 46.102 C 242.504 48.613 243.114 51.161 243.591 53.736 C 244.131 56.664 244.565 59.611 244.889 62.578 C 245.263 65.938 245.539 69.308 245.735 72.688 C 245.952 76.51 246.109 80.322 246.188 84.144 C 246.276 88.437 246.325 92.721 246.325 97.014 L 246.325 155.226 C 246.325 159.519 246.276 163.803 246.188 168.096 C 246.106 171.917 245.955 175.736 245.735 179.552 C 245.539 182.932 245.263 186.302 244.889 189.672 C 244.564 192.631 244.132 195.577 243.591 198.504 C 243.114 201.079 242.503 203.627 241.761 206.138 C 241.109 208.355 240.307 210.524 239.361 212.632 C 238.507 214.529 237.493 216.35 236.331 218.075 C 235.233 219.701 233.982 221.218 232.594 222.605 C 231.206 223.983 229.691 225.226 228.069 226.318 C 226.335 227.479 224.505 228.491 222.6 229.344 C 220.492 230.295 218.32 231.096 216.099 231.741 C 213.581 232.479 211.027 233.086 208.446 233.559 C 205.515 234.109 202.554 234.541 199.583 234.865 C 196.219 235.229 192.836 235.514 189.453 235.701 C 185.626 235.917 181.8 236.074 177.973 236.153 C 173.675 236.251 169.376 236.29 165.078 236.29 L 90.932 236.29 C 86.634 236.29 82.335 236.25 78.037 236.153 C 74.208 236.071 70.381 235.92 66.557 235.701 C 63.174 235.511 59.796 235.232 56.427 234.865 C 53.457 234.543 50.501 234.108 47.564 233.559 C 44.983 233.086 42.429 232.479 39.911 231.741 C 37.69 231.096 35.518 230.295 33.41 229.344 C 31.505 228.491 29.675 227.479 27.94 226.318 C 26.318 225.226 24.803 223.982 23.416 222.604 C 22.028 221.218 20.776 219.701 19.678 218.075 C 18.516 216.35 17.502 214.529 16.648 212.632 C 15.702 210.524 14.9 208.355 14.248 206.138 C 13.506 203.627 12.896 201.079 12.419 198.504 C 11.878 195.577 11.446 192.631 11.121 189.672 C 10.747 186.302 10.471 182.932 10.275 179.552 C 10.055 175.736 9.904 171.917 9.822 168.096 C 9.732 163.807 9.686 159.516 9.685 155.226 L 9.685 97.014 C 9.685 92.721 9.734 88.437 9.822 84.144 C 9.901 80.322 10.058 76.51 10.275 72.688 C 10.472 69.308 10.747 65.938 11.121 62.578 C 11.445 59.611 11.878 56.664 12.419 53.736 C 12.896 51.161 13.507 48.613 14.249 46.102 C 14.902 43.886 15.704 41.716 16.649 39.608 C 17.505 37.712 18.519 35.892 19.679 34.165 C 20.779 32.544 22.031 31.03 23.416 29.645 C 24.801 28.261 26.316 27.014 27.941 25.922 C 29.675 24.761 31.505 23.749 33.41 22.896 C 35.52 21.949 37.692 21.148 39.911 20.499 C 42.429 19.761 44.983 19.154 47.564 18.681 C 50.495 18.131 53.456 17.699 56.427 17.384 C 59.791 17.011 63.174 16.736 66.557 16.539 C 70.381 16.325 74.208 16.174 78.037 16.087 C 82.335 15.999 86.634 15.95 90.932 15.96 L 165.078 15.96 Z " fill-rule="evenodd" fill="url(#_lgradient_5)"/></g></g></svg>
